assets/images/ico_account.svg

<svg width="19" height="19" viewBox="0 0 19 19" fill="none" xmlns="http://www.w3.org/2000/svg">
<path fill-rule="evenodd" clip-rule="evenodd" d="M4.68871 4.50435C3.98705 6.67993 4.8511 9.39506 7.39438 10.6149C7.3863 10.6183 7.37857 10.6217 7.37105 10.625C7.35502 10.6321 7.33994 10.6388 7.32445 10.6443C7.28377 10.6587 7.24282 10.6724 7.20162 10.6853C3.73619 11.7736 1.66688 14.079 1.00646 17.6192C0.968351 17.8237 1.10503 17.9676 1.25207 17.9945C1.39853 18.0212 1.58149 17.9529 1.64736 17.7458C1.66859 17.6789 1.67844 17.6087 1.6883 17.5383C1.69396 17.4979 1.69962 17.4575 1.70744 17.4177C2.49074 13.4389 6.23078 10.4533 10.6524 11.1255C14.0111 11.6361 16.1828 13.6298 17.1716 16.8549C17.2169 17.0025 17.2457 17.1548 17.2745 17.3073C17.3014 17.4495 17.3283 17.5918 17.3687 17.7305C17.4303 17.9424 17.624 18 17.7793 17.968C17.9369 17.9355 17.9953 17.8332 17.9994 17.6583C18.0017 17.5579 17.9982 17.4852 17.9809 17.4021C17.3258 14.2548 15.4935 12.0793 12.4697 10.8932C12.2841 10.8203 12.0928 10.7616 11.8958 10.701C11.8027 10.6724 11.7084 10.6434 11.6127 10.6123C13.9868 9.46805 14.9885 6.9906 14.3986 4.73733C13.8543 2.65852 11.8762 1.08285 9.789 1.00398C7.34163 0.911479 5.35439 2.4402 4.68871 4.50435ZM9.19189 10.3818C6.98138 10.2407 5.0852 8.33818 5.12435 6.00888C5.13117 3.58383 7.09369 1.65409 9.541 1.66583C11.9661 1.67746 13.8812 3.6247 13.901 6.04512C13.9193 8.2799 11.9828 10.56 9.19189 10.3818Z" fill="#92B5CC"/>
<path d="M7.39438 10.6149L7.59001 11.075L8.60776 10.6423L7.6106 10.164L7.39438 10.6149ZM4.68871 4.50435L5.16457 4.65782L5.16457 4.65781L4.68871 4.50435ZM7.37105 10.625L7.16877 10.1678L7.16876 10.1678L7.37105 10.625ZM7.32445 10.6443L7.49134 11.1156L7.49181 11.1155L7.32445 10.6443ZM7.20162 10.6853L7.05211 10.2082L7.05181 10.2083L7.20162 10.6853ZM1.00646 17.6192L0.514944 17.5276L0.514931 17.5276L1.00646 17.6192ZM1.25207 17.9945L1.34196 17.5026L1.34178 17.5026L1.25207 17.9945ZM1.64736 17.7458L2.12385 17.8973L2.12389 17.8972L1.64736 17.7458ZM1.6883 17.5383L1.19314 17.4689L1.19314 17.4689L1.6883 17.5383ZM1.70744 17.4177L1.21686 17.3211L1.21683 17.3213L1.70744 17.4177ZM10.6524 11.1255L10.5773 11.6198L10.5773 11.6198L10.6524 11.1255ZM17.1716 16.8549L16.6936 17.0014L16.6936 17.0015L17.1716 16.8549ZM17.2745 17.3073L16.7832 17.4002L16.7832 17.4002L17.2745 17.3073ZM17.3687 17.7305L16.8886 17.8701L16.8886 17.8702L17.3687 17.7305ZM17.7793 17.968L17.6784 17.4783L17.6783 17.4783L17.7793 17.968ZM17.9994 17.6583L18.4992 17.6699L18.4992 17.6697L17.9994 17.6583ZM17.9809 17.4021L18.4705 17.3003L18.4704 17.3002L17.9809 17.4021ZM12.4697 10.8932L12.6523 10.4277L12.6523 10.4277L12.4697 10.8932ZM11.8958 10.701L12.0427 10.2231H12.0427L11.8958 10.701ZM11.6127 10.6123L11.3956 10.1619L10.273 10.703L11.4583 11.0879L11.6127 10.6123ZM14.3986 4.73733L13.9149 4.86397L13.9149 4.86398L14.3986 4.73733ZM9.789 1.00398L9.77011 1.50363L9.77012 1.50363L9.789 1.00398ZM5.12435 6.00888L5.62433 6.01728L5.62435 6.01028L5.12435 6.00888ZM9.19189 10.3818L9.16003 10.8808L9.19189 10.3818ZM9.541 1.66583L9.5434 1.16584H9.5434L9.541 1.66583ZM13.901 6.04512L13.401 6.04921V6.04922L13.901 6.04512ZM7.6106 10.164C5.30973 9.06049 4.53378 6.61367 5.16457 4.65782L4.21284 4.35087C3.44032 6.7462 4.39248 9.72963 7.17815 11.0657L7.6106 10.164ZM7.57333 11.0823C7.58127 11.0788 7.58578 11.0768 7.59001 11.075L7.19874 10.1547C7.18682 10.1598 7.17587 10.1647 7.16877 10.1678L7.57333 11.0823ZM7.49181 11.1155C7.52809 11.1026 7.5605 11.088 7.57334 11.0823L7.16876 10.1678C7.16457 10.1697 7.16166 10.1709 7.15896 10.1721C7.15638 10.1732 7.15477 10.1739 7.15373 10.1744C7.15157 10.1753 7.15318 10.1745 7.15709 10.1732L7.49181 11.1155ZM7.35114 11.1624C7.39816 11.1477 7.44491 11.1321 7.49134 11.1156L7.15756 10.173C7.12263 10.1854 7.08747 10.1971 7.05211 10.2082L7.35114 11.1624ZM1.49798 17.7109C1.81413 16.0162 2.4619 14.6427 3.42483 13.5662C4.38807 12.4893 5.68935 11.6843 7.35144 11.1623L7.05181 10.2083C5.24847 10.7746 3.78237 11.6665 2.6795 12.8995C1.57631 14.1328 0.859216 15.6821 0.514944 17.5276L1.49798 17.7109ZM1.34178 17.5026C1.39237 17.5118 1.43388 17.5382 1.46246 17.577C1.49698 17.6239 1.50424 17.6774 1.498 17.7109L0.514931 17.5276C0.420684 18.0332 0.772785 18.4153 1.16235 18.4863L1.34178 17.5026ZM1.17087 17.5943C1.17252 17.5891 1.17803 17.5756 1.19128 17.5594C1.20441 17.5433 1.2211 17.5295 1.23959 17.5194C1.27407 17.5005 1.30926 17.4966 1.34196 17.5026L1.16217 18.4863C1.52078 18.5519 1.97131 18.377 2.12385 17.8973L1.17087 17.5943ZM1.19314 17.4689C1.18223 17.5468 1.17712 17.5746 1.17083 17.5944L2.12389 17.8972C2.16007 17.7833 2.17465 17.6706 2.18346 17.6077L1.19314 17.4689ZM1.21683 17.3213C1.20592 17.3768 1.19847 17.4309 1.19314 17.4689L2.18346 17.6077C2.18945 17.565 2.19332 17.5382 2.19806 17.5141L1.21683 17.3213ZM10.7276 10.6312C6.02438 9.91621 2.0485 13.0968 1.21686 17.3211L2.19803 17.5143C2.93299 13.781 6.43718 10.9905 10.5773 11.6198L10.7276 10.6312ZM17.6496 16.7083C17.1334 15.0244 16.2995 13.6352 15.1329 12.5985C13.9651 11.5608 12.4895 10.899 10.7276 10.6312L10.5773 11.6198C12.1741 11.8626 13.4637 12.453 14.4686 13.346C15.4747 14.2401 16.2211 15.4603 16.6936 17.0014L17.6496 16.7083ZM17.7658 17.2143C17.7379 17.0665 17.7044 16.8868 17.6496 16.7082L16.6936 17.0015C16.7294 17.1182 16.7535 17.2431 16.7832 17.4002L17.7658 17.2143ZM17.8488 17.591C17.8163 17.4791 17.7935 17.3606 17.7658 17.2143L16.7832 17.4002C16.8094 17.5384 16.8404 17.7045 16.8886 17.8701L17.8488 17.591ZM17.6783 17.4783C17.6925 17.4754 17.7203 17.4729 17.7583 17.4914C17.7793 17.5017 17.801 17.5176 17.8193 17.5393C17.8377 17.5611 17.8459 17.581 17.8488 17.5909L16.8886 17.8702C16.9589 18.1119 17.1177 18.2915 17.3195 18.39C17.5085 18.4823 17.7107 18.4926 17.8802 18.4577L17.6783 17.4783ZM17.4995 17.6467C17.4985 17.6913 17.4903 17.6492 17.5326 17.5866C17.5558 17.5523 17.5863 17.5237 17.6193 17.5036C17.6502 17.4848 17.6734 17.4793 17.6784 17.4783L17.8802 18.4577C18.0555 18.4216 18.2372 18.3301 18.3612 18.1465C18.4731 17.9809 18.4962 17.8002 18.4992 17.6699L17.4995 17.6467ZM17.4914 17.504C17.4979 17.5353 17.5013 17.5661 17.4995 17.6469L18.4992 17.6697C18.502 17.5497 18.4985 17.4351 18.4705 17.3003L17.4914 17.504ZM12.2871 11.3586C15.1544 12.4834 16.8708 14.5226 17.4914 17.504L18.4704 17.3002C17.7808 13.9871 15.8326 11.6753 12.6523 10.4277L12.2871 11.3586ZM11.7489 11.179C11.9491 11.2405 12.1221 11.2939 12.2872 11.3586L12.6523 10.4277C12.446 10.3468 12.2365 10.2826 12.0427 10.2231L11.7489 11.179ZM11.4583 11.0879C11.5583 11.1204 11.6564 11.1505 11.7489 11.179L12.0427 10.2231C11.949 10.1943 11.8584 10.1664 11.7671 10.1368L11.4583 11.0879ZM13.9149 4.86398C14.4458 6.89181 13.5488 9.12411 11.3956 10.1619L11.8298 11.0628C14.4248 9.81199 15.5313 7.08939 14.8823 4.61069L13.9149 4.86398ZM9.77012 1.50363C11.6354 1.57411 13.426 2.99666 13.9149 4.86397L14.8823 4.61069C14.2826 2.32038 12.117 0.59159 9.80788 0.504341L9.77012 1.50363ZM5.16457 4.65781C5.7632 2.80159 7.55208 1.41979 9.77011 1.50363L9.80788 0.504341C7.13119 0.403168 4.94557 2.07882 4.21284 4.35088L5.16457 4.65781ZM4.62442 6.00047C4.58055 8.6103 6.69678 10.7235 9.16003 10.8808L9.22375 9.88285C7.26598 9.75783 5.58984 8.06605 5.62428 6.01728L4.62442 6.00047ZM9.5434 1.16584C6.82392 1.15279 4.63197 3.30156 4.62435 6.00747L5.62435 6.01028C5.63038 3.8661 7.36346 2.15539 9.5386 2.16582L9.5434 1.16584ZM14.401 6.04102C14.379 3.35244 12.2475 1.17881 9.5434 1.16584L9.5386 2.16582C11.6847 2.17612 13.3834 3.89696 13.401 6.04921L14.401 6.04102ZM9.16003 10.8808C12.2654 11.0791 14.4215 8.54073 14.401 6.04102L13.401 6.04922C13.4172 8.01908 11.7003 10.041 9.22375 9.88285L9.16003 10.8808Z" fill="#ffffff"/>
</svg>

<svg width="19" height="19" fill="none" xmlns="http://www.w3.org/2000/svg"><path fill-rule="evenodd" clip-rule="evenodd" d="M4.689 4.504c-.702 2.176.162 4.891 2.705 6.11l-.023.011-.047.02-.122.04c-3.466 1.089-5.535 3.394-6.196 6.934a.312.312 0 00.246.375.345.345 0 00.395-.248c.022-.067.031-.137.041-.208.006-.04.012-.08.02-.12.783-3.98 4.523-6.965 8.944-6.292 3.36.51 5.53 2.504 6.52 5.729.045.148.074.3.102.452.027.143.054.285.095.424.061.211.255.269.41.237.158-.032.216-.135.22-.31a1.06 1.06 0 00-.018-.256c-.655-3.147-2.488-5.323-5.511-6.509-.186-.073-.377-.131-.574-.192a18.24 18.24 0 01-.283-.089c2.374-1.144 3.376-3.621 2.786-5.875-.545-2.078-2.523-3.654-4.61-3.733-2.447-.093-4.435 1.436-5.1 3.5zm4.503 5.878c-2.21-.141-4.107-2.044-4.068-4.373.007-2.425 1.97-4.355 4.417-4.343 2.425.011 4.34 1.959 4.36 4.38.018 2.234-1.918 4.514-4.71 4.336z" fill="#92B5CC"/><path d="M7.394 10.615l.196.46 1.018-.433-.997-.478-.217.45zM4.69 4.505l.476.153-.476-.154zm2.682 6.12l-.202-.457.202.457zm-.047.02l.167.47-.167-.47zm-.122.04l-.15-.477.15.477zM1.006 17.62l-.491-.091.491.091zm.246.375l.09-.491-.09.491zm.395-.248l.477.151-.477-.151zm.041-.208l-.495-.07.495.07zm.02-.12l-.491-.097.49.097zm8.944-6.292l-.075.494.075-.494zm6.52 5.729l-.478.146.478-.146zm.102.452l-.49.093.49-.093zm.095.424l-.48.14.48-.14zm.41.237l-.1-.49.1.49zm.22-.31l.5.012-.5-.012zm-.018-.256l.49-.102-.49.102zm-5.511-6.509l.182-.465-.182.465zm-.574-.192l.147-.478-.147.478zm-.283-.089l-.217-.45-1.123.541 1.185.385.155-.476zm2.786-5.875l-.484.127.484-.127zm-4.61-3.733l-.019.5.019-.5zM5.124 6.009l.5.008V6.01l-.5-.001zm4.068 4.373l-.032.499.032-.5zm.349-8.716l.002-.5-.002.5zm4.36 4.38l-.5.003.5-.004zm-6.29 4.118C5.31 9.06 4.534 6.614 5.165 4.658l-.952-.307a5.559 5.559 0 002.965 6.715l.433-.902zm-.038.918l.017-.007-.391-.92-.03.013.404.914zm-.081.034a.867.867 0 00.081-.034l-.404-.914-.01.004a.147.147 0 00-.005.002h.003l.335.942zm-.14.046c.046-.014.093-.03.14-.046l-.334-.943-.106.035.3.954zm-5.854 6.549c.316-1.695.964-3.068 1.927-4.145.963-1.077 2.264-1.882 3.926-2.404l-.3-.954c-1.803.567-3.269 1.458-4.372 2.691C1.577 14.133.86 15.682.515 17.529l.983.183zm-.156-.208a.19.19 0 01.156.208l-.983-.183a.812.812 0 00.647.958l.18-.983zm-.171.091a.113.113 0 01.02-.035.165.165 0 01.049-.04.152.152 0 01.102-.016l-.18.983a.844.844 0 00.962-.589l-.953-.303zm.022-.125a.853.853 0 01-.022.125l.953.303c.036-.114.05-.226.06-.29l-.99-.138zm.024-.148c-.011.056-.019.11-.024.148l.99.139c.006-.043.01-.07.015-.094l-.981-.193zm9.51-6.69c-4.703-.715-8.678 2.466-9.51 6.69l.981.193c.735-3.733 4.24-6.523 8.38-5.894l.15-.989zm6.923 6.077c-.517-1.684-1.35-3.073-2.517-4.11-1.168-1.037-2.643-1.699-4.405-1.967l-.15.989c1.596.243 2.886.833 3.89 1.726 1.007.894 1.753 2.114 2.226 3.655l.956-.293zm.116.506c-.028-.147-.062-.327-.116-.506l-.956.294c.035.116.06.241.09.398l.982-.186zm.083.377a4.088 4.088 0 01-.083-.377l-.983.186c.026.138.057.305.106.47l.96-.279zm-.17-.113a.123.123 0 01.08.013.19.19 0 01.06.048.15.15 0 01.03.052l-.96.28c.07.24.229.42.43.519a.88.88 0 00.561.068l-.202-.98zm-.18.169c0 .044-.009.002.034-.06a.285.285 0 01.086-.083.196.196 0 01.06-.026l.201.98a.748.748 0 00.481-.311.876.876 0 00.138-.477l-1-.023zm-.008-.143c.007.031.01.062.009.143l1 .023a1.604 1.604 0 00-.03-.37l-.979.204zm-5.204-6.145c2.867 1.124 4.584 3.164 5.204 6.145l.98-.204c-.69-3.313-2.638-5.625-5.819-6.872l-.365.93zm-.538-.18c.2.062.373.115.538.18l.365-.931c-.206-.081-.415-.145-.61-.205l-.293.956zm-.29-.091c.1.032.197.063.29.091l.294-.956a18.776 18.776 0 01-.276-.086l-.309.95zm2.456-6.224c.53 2.028-.366 4.26-2.52 5.298l.435.9c2.595-1.25 3.701-3.973 3.052-6.451l-.967.253zM9.77 1.504c1.865.07 3.656 1.493 4.145 3.36l.967-.253c-.6-2.29-2.765-4.02-5.074-4.107l-.038 1zM5.165 4.658C5.763 2.802 7.552 1.42 9.77 1.504l.038-1C7.13.404 4.946 2.08 4.213 4.351l.952.307zM4.625 6c-.044 2.61 2.072 4.723 4.535 4.88l.064-.997c-1.958-.125-3.634-1.817-3.6-3.866l-1-.017zm4.918-4.834c-2.72-.013-4.911 2.136-4.919 4.841l1 .003c.006-2.144 1.74-3.855 3.915-3.844l.004-1zm4.858 4.875c-.022-2.689-2.153-4.862-4.858-4.875l-.004 1c2.146.01 3.844 1.731 3.862 3.883l1-.008zm-5.241 4.84c3.105.198 5.261-2.34 5.241-4.84l-1 .008c.016 1.97-1.7 3.992-4.177 3.834l-.064.998z" fill="#fff"/></svg>
